X: 12
T:Reel de Mattawa
% Nottingham Music Database
S:via PR
M:4/4
L:1/4
K:D
[e/2a/2][f/2a/2]|"Em"[g/2b/2][e/2g/2][f/2a/2][d/2f/2] [e/2g/2][c/2e/2][d/2f/2][B/2e/2]|"D"[A/2d/2][B/2d/2][A/2d/2][F/2A/2] [DF][F/2A/2][D/2F/2]|\
"Em"[E/2G/2][F/2A/2][G/2B/2][A/2c/2] [Be][e/2g/2][f/2a/2]|"C"[g/2=c'/2][f/2a/2][e/2g/2][d/2f/2] "Bm"[Ac][e/2g/2][f/2b/2]|
"Em"[g/2b/2][e/2g/2][f/2a/2][d/2f/2] [e/2g/2][c/2e/2][d/2f/2][B/2e/2]|"D"[A/2d/2][B/2d/2][A/2d/2][F/2A/2] [DF][F/2A/2][D/2F/2]|"Em"[E/2G/2][F/2A/2][G/2B/2][A/2c/2] [Be][A/2c/2][G/2B/2]\
|"Bm"[F/2B/2][D/2F/2][G/2B/2][F/2B/2] "Em"E::
[Ac]|"Em"[Be][e/2g/2][B/2e/2] [g/2b/2][B/2e/2][e/2g/2][B/2e/2]|"Em"[Be][e/2g/2][B/2e/2] [g/2b/2][B/2e/2][e/2g/2][B/2e/2]|"D"[df][f/2a/2][d/2f/2] [g/2b/2][d/2f/2][f/2a/2][d/2f/2]|\
"D"[df][f/2a/2][d/2f/2] [g/2b/2][d/2f/2][f/2a/2][d/2f/2]|
"Em"[Be][e/2g/2][B/2e/2] [g/2b/2][B/2e/2][e/2g/2][B/2e/2]|"Em"[Be][e/2g/2][B/2e/2] [g/2b/2][B/2e/2][e/2g/2][B/2e/2]|"Bm"[f3/2b3/2][g/2b/2] [f/2b/2][e/2g/2][d/2f/2][c/2e/2]|\
"Bm"[B/2d/2][c/2e/2][d/2f/2][d/2f/2] "Em"[eg]:|


